X: 6181
T: Cara's Joy
R: reel
M: 4/4
K: Gmajor
GBBG ccGc|dggf gdBd|c2 dc BDGB|ADFA dBcA
GBBG c2 Gc|dggf gdBd|c2 dc BDGB|ADFA G2 G:|
g2 dc BDGB|cCEG DG,B,D|CccB cBAG|Ddd^c defa
g2 dc BDGB|cEGB DG,B,D|EccB cBAG|FDFA G2 G:|

